X: 14
T:LA SAUTICHE
M:2/4
L:1/8
Q:250
C:trad. Bresse / Jura
R:scottish
K:C
GGcd|e2c2|GGcd|e2c2|ecec|e2gf|e2f2|d4:|
|:cde2|c2A2|Bcd2|B2G2|def2|e2d2|gfe2|d2c2:|
